client/public/img/misc/mwheelbackward_icon.svg

<?xml version="1.0" encoding="UTF-8" standalone="no"?>
<svg
   width="12"
   height="26"
   viewBox="0 0 12 26"
   fill="none"
   version="1.1"
   id="svg15"
   xmlns="http://www.w3.org/2000/svg"
   xmlns:svg="http://www.w3.org/2000/svg">
  <defs
     id="defs15" />
  <path
     d="M0.586226 22.1543L1.4205 21.8896C1.62505 22.5538 1.92538 23.2018 2.30678 23.786L1.47902 24.1285C1.40946 24.1656 1.37298 24.1709 1.31471 24.0626L0.530069 22.3094C0.492957 22.2139 0.496285 22.1797 0.586226 22.1543Z"
     fill="#333333"
     id="path1" />
  <path
     d="M0.421457 19.0801H1.12698C1.11402 19.371 1.10891 19.6548 1.10891 19.9107C1.10891 20.5034 1.20072 21.1216 1.3732 21.7296L0.530136 21.812C0.453283 21.819 0.41822 21.8106 0.416042 21.701L0.304936 19.2049C0.302194 19.1175 0.320961 19.0847 0.421457 19.0801Z"
     fill="#333333"
     id="path2" />
  <path
     d="M10.5958 14.9009C10.6999 15.5936 10.8101 16.3266 10.9784 17.0766H7.25293V10.0703C9.92235 10.4221 10.2195 12.3982 10.5958 14.9009Z"
     fill="#333333"
     id="path3" />
  <path
     d="M6.9704 10.0401V17.0767H5.69922V10.0401C5.89864 10.0233 6.11023 10.0146 6.33482 10.0146C6.5594 10.0146 6.77098 10.0233 6.9704 10.0401Z"
     fill="#FF0000"
     id="path4" />
  <path
     d="M5.41683 10.0703V17.0766H1.69141C1.85964 16.3266 1.96985 15.5936 2.07399 14.9009C2.45028 12.3982 2.74741 10.4221 5.41683 10.0703Z"
     fill="#333333"
     id="path5" />
  <path
     d="M11.062 17.43C11.0561 17.4064 11.0503 17.3829 11.0446 17.3594H1.62555L1.62359 17.3674C1.62017 17.3814 1.61673 17.3954 1.61327 17.4094L1.60817 17.43C1.44061 18.1039 1.3916 19.1257 1.3916 19.9108C1.3916 22.6349 3.43142 25.9733 6.33874 25.9751C9.24605 25.9733 11.2785 22.6349 11.2785 19.9108C11.2785 19.1257 11.2295 18.1039 11.062 17.43Z"
     fill="#333333"
     id="path6" />
  <path
     d="M8.47949 8.54688H4.1902L6.13723 0.975448H6.53259L8.47949 8.54688Z"
     fill="#732626"
     id="path7" />
  <path
     d="M6.39106 1.07892L6.38442 0.975586H6.28557L6.27893 1.07892H6.39106Z"
     fill="#993333"
     id="path8" />
  <path
     d="M6.39586 1.15379L6.40957 1.36679H6.26042L6.27413 1.15379H6.39586Z"
     fill="#993333"
     id="path9" />
  <path
     d="M6.25435 1.46111H6.41562L6.43813 1.81137H6.23184L6.25435 1.46111Z"
     fill="#993333"
     id="path10" />
  <path
     d="M6.22331 1.94384H6.44665L6.48891 2.60141H6.18105L6.22331 1.94384Z"
     fill="#993333"
     id="path11" />
  <path
     d="M6.16469 2.85576H6.50527L6.57106 3.87932H6.0989L6.16469 2.85576Z"
     fill="#993333"
     id="path12" />
  <path
     d="M6.076 4.23521H6.59393L6.6946 5.80137H5.97531L6.076 4.23521Z"
     fill="#993333"
     id="path13" />
  <path
     d="M5.93898 6.36634H6.73093L6.87109 8.54701H5.79879L5.93898 6.36634Z"
     fill="#993333"
     id="path14" />
  <rect
     x="7.20312"
     y="6.0498"
     width="1.73623"
     height="1.63455"
     transform="rotate(180 7.20312 6.0498)"
     fill="#FF0000"
     id="rect14" />
  <path
     d="M8.47949 4.41504H4.19048L6.33499 1.64747L8.47949 4.41504Z"
     fill="#FF0000"
     id="path15" />
</svg>

<svg xmlns="http://www.w3.org/2000/svg" width="12" height="26" fill="none"><path fill="#333" d="m.586 22.154.835-.264c.204.664.504 1.312.886 1.896l-.828.342c-.07.038-.106.043-.164-.065L.53 22.309c-.037-.095-.034-.13.056-.155M.421 19.08h.706c-.013.291-.018.575-.018.83 0 .593.092 1.212.264 1.82l-.843.082c-.077.007-.112-.001-.114-.111l-.111-2.496c-.003-.087.016-.12.116-.125m10.175-4.18c.104.694.214 1.427.382 2.177H7.253V10.07c2.67.352 2.967 2.328 3.343 4.83"/><path fill="red" d="M6.97 10.04v7.037H5.7V10.04a7.6 7.6 0 0 1 1.27 0"/><path fill="#333" d="M5.417 10.07v7.007H1.69c.169-.75.279-1.483.383-2.176.376-2.503.673-4.479 3.343-4.83m5.646 7.359-.017-.07h-9.42l-.001.007-.01.042-.006.021c-.167.674-.216 1.696-.216 2.48 0 2.725 2.04 6.063 4.947 6.065 2.907-.002 4.94-3.34 4.94-6.064 0-.785-.05-1.807-.217-2.481"/><path fill="#732626" d="M8.48 8.547H4.19L6.137.975h.396z"/><path fill="#933" d="M6.391 1.079 6.384.976h-.098l-.007.103zm.005.075.014.213h-.15l.014-.213zm-.142.307h.162l.022.35h-.206zm-.031.483h.224l.042.657H6.18zm-.058.912h.34l.066 1.023H6.1zm-.089 1.379h.518l.1 1.566h-.719zm-.137 2.131h.792l.14 2.181H5.8z"/><path fill="red" d="M7.203 6.05H5.467V4.415h1.736zM8.48 4.415H4.19l2.145-2.768z"/></svg>
